X:1
T:Gesammelte Motetten
T:Es ist in keinem Andern Heil
T:Johann Heinrich Rolle
T:Es ist in keinem Andern Heil
T:CPDL - Creative Commons Attribution Non Commercial 3.0
T:CPDL - Creative Commons Attribution Non Commercial 3.0
T:CPDL - Creative Commons Attribution Non Commercial 3.0
T:CPDL - Creative Commons Attribution Non Commercial 3.0
T:CPDL - Creative Commons Attribution Non Commercial 3.0
T:CPDL - Creative Commons Attribution Non Commercial 3.0
T:CPDL - Creative Commons Attribution Non Commercial 3.0
T:CPDL - Creative Commons Attribution Non Commercial 3.0
T:CPDL - Creative Commons Attribution Non Commercial 3.0
T:CPDL - Creative Commons Attribution Non Commercial 3.0
C:Johann Heinrich Rolle
Z:CPDL - Creative Commons Attribution Non Commercial 3.0
%%score [ 1 ( 2 3 ) 4 5 ]
L:1/8
M:4/4
K:A
V:1 treble nm="Sopran"
V:2 treble nm="Alt"
V:3 treble 
V:4 treble-8 nm="Tenor"
V:5 bass nm="Bass"
V:1
 z4 A4 | (A4 G2) E2 | A2 B2 c2 d2 | (c4 B2) e2 | A2 A2 A2 A2 | G2 FE A2 Bc | (d4 c4) | %7
w: Es|ist _ in|kei- nem An- dern|Heil, _ ist|auch kein and- rer|Na- me den Men- schen ge-|ge- *|
 B2!mf! B2 B2 cB | A2 A2 (A2 B)A | A2 G2 z4 | z8 | z2!f! e2 e2 fe | d2 d2 (d2 e)d | %13
w: ben, da- rin- nen sie|sol- len se- * lig|wer- den,||da- rin- nen sie|sol- len se- * lig|
 cB A2 z2!p! e2 | E2 E2 E2 E2 | (!>!c3 ^d/e/) B4 | e2!p! E2 E2 E2 | (!>!c3 ^d/e/) B2!f! BB | %18
w: wer- * den, denn|in dem Na- men|Je- * * su,|in dem Na- men|Je- * * su, in dem|
 c6 f^d | B6 ec | A6 BA | G2 e4 A2 | B2 e4 c2 | ^d4 (e3 f/g/) | fe^dc B2 A2 | (G4 F4) | %26
w: Na- * *||||||* * * * * men|Je- *|
 !fermata!E4"^Solo" z4 | z8 | z8 | z8 | z8 | z8 | z8 | z8 | z8 | z8 | z8 | z8 | z8 | %39
w: su.|||||||||||||
 z4"^Tutti"!f! f4 | (f4 ^e2) c2 | f2 G2 A2 B2 | (A4 G2) c2 |!mf! F2 F2 F2 F2 | F4 ^E2 C2 | %45
w: Es|ist _ in|kei- nem An- dern|Heil, _ ist|auch kein and- rer|Na- me, ist|
 A2 A2 A2 A2 | A4 G2 B2 | c2 ed (d2 c2) | B4 z2!p! B2 | c2 ed (d2 c2) | B2 B2 B2 cB | %51
w: auch kein and- rer|Na- me den|Men- schen ge- ge- *|ben, den|Men- schen ge- ge- *|ben, da- rin- nen sie|
 A2 A2 (A2 B)A | GF E2 z4 | z8 | z8 | z8 | z8 | z8 | z8 | z8 | z8 | z8 | z8 | z8 | z8 | %65
w: sol- len se- * lig|wer- * den.|||||||||||||
!f!"^CHORAL" A8 | A4 A4 | B4 A4 | d4 e4 | d8- | d8 | z8 | z8 | c4 e4 | f4 (e3 d) | c4 B4 | A8 | %77
w: Dich,|un- sern|Hei- land,|un- sern|Herrn|_|||sahn die|Völ- ker _|schon von|fern|
 z8 | z8 | A8 | d4 c4 | e4 B4 | A4 F4 | E8 | z8 | z8 | z4 E4 | B4 B4 | B4 e4 | d4 (c2 B2) | %90
w: ||mit|glau- bens-|vol- ler|Zu- ver-|sicht,|||dich,|al- ler|Völ- ker|Trost und _|
 (A3 B) c4 | B8- | B4 z4 | z4 A4 | A4 A4 | A8- | A4 z4 | z8 | z8 | z8 | z8 | z4 z2!f! c2 | %102
w: Licht. _ _|_||Hal-|le- lu-|ja!|_|||||denn|
 c2 d^A B4- | B2 cG A2 d2 | (c4 B4) | !fermata!A8 |] %106
w: in dem * Na-|* * * * men|Je- *|su.|
V:2
 z4 E4 | E6 B,2 | E2 G2 A2 B2 | (A4 G2) G2 | E2 D2 C2 E2 | E2 B,B, E2 EA | (B4 A4) | %7
w: |||||||
 G2!mf! G2 G2 AG | F2 F2 (F2 G)F | F2 E!p!G G2 AG | F2 F2 (F2 G)F | E2 G!f!G A2 AA | A2 A2 G2 G2 | %13
w: ||* * da- rin- nen sie|sol- len se- * lig|wer- den, da- rin- nen sie|sol- len se- lig|
 A2 E2 z2!p! E2 | E2 E2 E2 E2 | !>!A4 G4 | G2 E2 E2 E2 | !>!A4 G2!f! GG | G2 A^E F4- | F2 G^D E4- | %20
w: wer- den, *|||||||
 E2 FC ^D4 | E2 G2 A3 B/c/ | B4 F4- | F4 ^A4 | B4 F2"^( alt.:  )" A2 | (G4 F4) | !fermata!E4 E4 | %27
w: |||||Je- *|su. Es|
 (E4 ^D2) B,2 | E2 F2 G>B A2 | (G4 F2) B2 | E2 E2 E2 E2 | E^DCB, E2 FG | (A4 G4) | F2 F2 F2 GF | %34
w: ist _ in|kei- nem An- * dern|Heil, _ ist|auch kein and- rer|Na- * me den Men- schen ge-|ge- *|ben, da- rin- nen sie|
 E2 E2 (E2 F)E | E2 ^D2 z4 | (^E4 G4) | A2 c2 c2 dc | B2 B2 (B2 c)B | AG F2!f! (F>G A2) | %40
w: sol- len se- * lig|wer- den,|se- *|lig, da- rin- nen sie|sol- len se- * lig|wer- * den. Es _ _|
 (A4 G2) ^E2 | F2 ^E2 F2 G2 | (F4 ^E2) E2 |!mf! F4 z2 F2 | G2 G2 G2 G2 | G4 F2 F2 | B2 B2 B2 G2 | %47
w: ist _ in|kei- nem An- dern|Heil, _ ist|auch, ist|auch kein and- rer|Na- me, ist|auch kein and- rer|
 A2 cB (B2 A2) | G4 z2!p! G2 | A2 cB (B2 A2) | G2 G2 G2 AG | F2 F2 (F2 G)F | E^D E2 A4- | A4 G4 | %54
w: Na- me ge- ge- *|ben, den|Men- schen ge- ge- *|ben, da- rin- nen sie|sol- len se- * lig|wer- * den, se-||
 A4 E4- | E4 E4 | F3 ^G (A2 B)A | GF E2 z2 E2 |!<(! A2 A2 A2 A2!<)! |!>(! A4 G4!>)! | %60
w: lig, se-|* lig,|se- lig, se- * lig|wer- * den, denn|in dem Na- men|Je- su,|
!<(! B2 B2 B2 B2!<)! |!>(! B4 A2!>)!!f! c2 | c2 d^A B4- | B2 cG A2 F2 | (A4 G4) | A4 z4 | z8 | z8 | %68
w: in dem Na- men|Je- su, dem|Na- * * *|* * * * men|Je- *|su,|||
 z4 z2!mf! A2 | F2!<(! F2 F2 F2!<)! |!>(! =G4!>)! F4 | F2!<(! F2 F2 F2!<)! |!>(! (=G4!>)! F4) | %73
w: denn|in dem Na- men|Je- su,|in dem Na- men|Je- *|
 E4 z2!f! A2 | A2 A2 B2 ^G2 | (A6 G2) | A2!mf! E2 E2 FE | D2 D2 (D2 E)D | C2 CD E4- | E4 E4 | %80
w: su, ist|auch kein and- rer|Na- *|me, da- rin- nen sie|sol- len se- * lig|wer- den, _ se-|* lig,|
 z2 F2 E2 EE | E2 E2 E2 E2 | E4 ^D2 D2 | E2 B,2 B,2 B,2 | (C3 ^D/E/) B,4 | E2 E2 E2 B,2 | %86
w: da- rin- nen sie|sol- len se- lig|wer- den, denn|in dem Na- men|Je- * * su,|in dem Na- men|
 (C3 ^D/E/) B,4 | z8 | z2!f! G2 E2 G2 | A2 B2 (A2 G2) | A4 z4 | z2!mf! G2 G2 AG | F2 F2 (F2 G)F | %93
w: Je- * * su,||ist auch kein|and- rer Na- *|me,|da- rin- nen sie|sol- len se- * lig|
 E2 EE E2 FE | D2 D2 (D2 E)D | (C3 D) E4 | F4 F4 | F4 E2!mf! E2 | E2 E2 E2 AE | %99
w: wer- den, da- rin- nen sie|sol- len se- * lig|wer- * den,|se- lig|wer- den, denn|in dem Na- men _|
!>(! (F3!>)! G/A/) E4 | E2 AE E2 AE |!>(! (F3!>)! G/A/) E2!f! E2 | F6 G^D | E6 A2 | (A4 G4) | %105
w: Je- * * su,|in dem * Na- men *|Je- * * su, denn|in dem *|Na- men|Je- *|
 !fermata!A8 |] %106
w: su.|
V:3
 x8 | x8 | x8 | x8 | x8 | x8 | x8 | x8 | x8 | x8 | x8 | x8 | x8 | x8 | x8 | x8 | x8 | x8 | x8 | %19
 x8 | x8 | x8 | x8 | x8 | x6 F2 | E4 ^D4 | x8 | x8 | x8 | x8 | x8 | x8 | x8 | x8 | x8 | x8 | x8 | %37
 x8 | x8 | x8 | x8 | x8 | x8 | x8 | x8 | x8 | x8 | x8 | x8 | x8 | x8 | x8 | x8 | x8 | x8 | x8 | %56
 x8 | x8 | x8 | x8 | x8 | x8 | x8 | x8 | x8 | x8 | x8 | x8 | x8 | x8 | x8 | x8 | x8 | x8 | x8 | %75
 x8 | x8 | x8 | x8 | x8 | x8 | x8 | x8 | x8 | x8 | x8 | x8 | x8 | x8 | x8 | x8 | x8 | x8 | x8 | %94
 x8 | x8 | x8 | x8 | x8 | x8 | x8 | x8 | x8 | x8 | x8 | x8 |] %106
V:4
 z4 c4 | (c4 B2) G2 | c2 d2 e2 f2 | e6 B2 | c2 d2 e2 c2 | B2 AG A2 ce | e8 | e4 e4 | (e4 ^d4) | %9
w: Es|ist _ in|kei- nem An- dern|Heil, ist|auch kein and- rer|Na- me den Men- schen ge-|ge-|ben, da-|rin- *|
 e2!p! B2 B2 cB | A2 A2 (A2 B)A | G2 B!f!B c2 de | f2 f2 e2 e2 | ed c2 z4 | z4 z2!p!"^denn" e2 | %15
w: nen, da~\- rin- nen sie|sol- len se- * lig|||||
 e2 e2 e2 e2 | e4 E4 | e2 e2 e2 e!f!e | A4 c4 | ^d4 B2 B2 | (c4 B4) | B4 z2 e2 | e2 B2 c2 c2 | %23
w: in dem Na- men|Je- su,|in dem Na- men, dem|Na- men|Je- su, dem|Na- *|men, denn|in dem Na- men,|
 B2 B2 (c3 ^d/e/) | ^d2 f4 d2 | (B4 A4) | !fermata!G4 G4 | (G4 F2) B2 | B2 ^d2 e2 f2 | %29
w: in dem Na- * *|* * men|||||
 (e4 ^d2) fd | B2 B2 B2 AG | F2 BB B2 ^de | (f4 e4) | ^d2 d2 d2 ed | c2 c2 (c2 ^d)c | c2 B2 z4 | %36
w: |||||||
 (c4 ^e4) | f4 f2 f2 | (f4 ^e4) | f4!f! c4 | c6 c2 | c2 B2 c2 d2 | c6 c2 |!mf! c2 B2 c2 A2 | %44
w: se- *|lig, se- lig|wer- *|den, es|ist in|kei- nem An- dern|Heil, ist|auch kein and- rer|
 c4 c2 ^e2 | c2 c2 c2 c2 | f4 e2 e2 | e2 ee e4 | e4 z2!p! e2 | e2 ee e4 | e4 e4 | (e4 ^d4) | %52
w: Na- me, ist|auch kein and- rer|Na- me den|Men- schen ge- ge-|ben, den|Men- schen ge- ge-|ben, da-|rin- *|
 e2 e2 e2 fe | =d2 d2 (d2 e)d | cB A2 c4- | c4 c4 | d4 ^d4 | e2 E2 z2 e2 |!<(! c2 c2 c2 c2!<)! | %59
w: nen, da- rin- nen sie|sol- len se- * lig|wer- * den, se-|* lig,|se- lig|wer- den, *||
!>(! c4 B4!>)! |!<(! d2 d2 d2 d2!<)! |!>(! d4 c2!>)!!f! e2 | (f6 gf | e6) d2 | (c4 B4) | c4 z4 | %66
w: |||||||
 z8 | z8 | z4 z2!mf! c2 | d2!<(! A2 A2 A2!<)! |!>(! (B3 c/d/)!>)! A4 | A2!<(! A2 A2 A2!<)! | %72
w: |||in dem Na- men|Je- * * su,|in dem Na- men|
!>(! (B3 c/d/!>)! A2) d2 |!f! (c3 B) c2 c2 | d2 d2 B2 B2 | A2 A2 z4 | z2!mf! c2 c2 dc | %77
w: Je- * * * su,|Je- * su, ist|auch kein and- rer|Na- me,|da- rin- nen sie|
 B2 B2 (B2 c)B | A2 AB c4- | c4 c2!f! c2 | A2 A2 z2 A2 | B2 B2 B2 c2 | c4 B2 B2 | %83
w: sol- len se- * lig|wer- den, _ se-|* lig, da-|rin- nen sie|sol- len se- lig|wer- den, denn|
 G2 G2 G2!<(! G2!<)! |!>(! A4!>)! G4 | e2 E2 E2 G2 | (A4 G4) | F4 z4 | z4 z2!f! B2 | %89
w: in dem Na- men|Je- su,|in dem Na- men|Je- *|su,|kein|
 A2 e2 (e2 d2) | c4 z4 | z2!mf! B2 B2 cB | A2 A2 (A2 B)A | G2 EE c2 dc | B2 B2 (B2 c)B | %95
w: ||||||
 (A3 B) c4 | d4 d4 | d4 c2!mf! c2 | c2 c2 c2 c2 |!>(! d4!>)! c4 | c2 c2 c2 c2 | %101
w: ||||||
!>(! d4!>)! c2!f! c2 | d6 B2 | c6 f2 | (e4 d4) | !fermata!c8 |] %106
w: |||||
V:5
 z4 A,4 | E,6 D,2 | C,2 B,,2 A,,2 D,2 | E,6 D,2 | C,2 B,,2 C,2 A,,2 | E,2 E,D, C,2 A,,A, | %6
w: |||||* * * * * den|
 G,2 F,E, (A,2 A,,2) | E,4 z4 | z8 | z4 E,4 | (E,4 ^D,4) | E,2!f! D2 C2 DC | B,2 B,2 E,2 E,2 | %13
w: Men- schen ge- ge- *|ben,||da-|rin- *|nen, da- rin- nen sie|sol- len se- lig|
 A,4 A,,2 z2 | z4 z2!p! E,2 | E,2 E,2 E,2 E,2 | E,4 E,4 | E,2 E,2 E,2 E,!f!E, | A,4 A,4 | %19
w: wer- den,||||||
 G,4 G,2 G,2 | F,4 B,,4 | E,2 E,2 F,2 F,2 | G,2 G,2 ^A,2 A,2 | B,8- | B,2 B,,2 ^D,2 B,,2 | %25
w: Je- su, denn|in dem|Na- men, in dem|Na- men, in dem|Na-|* * * men|
 (E,4 B,,4) | !fermata!E,4 E,4 | B,,6 A,2 | G,2 F,2 E,2 A,,2 | B,,6 A,2 | G,2 G,2 G,2 E,2 | %31
w: Je- *|su. Es|ist in|kei- nem An- dern|Heil, ist|auch kein and- rer|
 B,,2 B,A, G,2 F,E, | ^D,2 C,B,, E,4 | B,,4 B,4 | (B,4 ^A,4) | B,2 B,,2 B,2 B,B, | %36
w: Na- me den Men- schen, den|Men- schen ge- ge-|ben, da-|rin- *|nen, da- rin- nen sie|
 B,2 B,2 (B,2 C)B, | A,2 A,2 (A,2 B,)A, | G,8 | F,2"^Tutti"!f! F,>G, A,2 F,2 | C6 B,2 | %41
w: sol- len se- * lig|wer- den, se- * lig|wer-|den. Es _ ist, es|ist in|
 A,2 G,2 F,2 B,,2 | C,6 B,2 |!mf! A,2 G,2 A,2 F,2 | C2 C,2 z2 C,2 | F,2 F,2 =E,2 E,2 | %46
w: |||Na- me, *||
 (^D,2 B,,2) E,2 E,2 | A,2 G,G, (A,2 A,,2) | E,4 z2!p! E,2 | A,2 G,G, (A,2 A,,2) | E,4 z4 | z8 | %52
w: ||||||
 z4 C4 | B,8 | A,2 A,,2 A,2 B,A, | =G,2 G,2 (G,2 A,)G, | F,2 F,2 F,2 F,2 | E,4 E,2 z2 | z4 z2 E,2 | %59
w: da-|rin-|nen, da- rin- nen sie|sol- len se- * lig|wer- den, se- lig|wer- den,|denn|
 E,2 E,2 E,2 E,2 | E,4 G,4 | A,2 A,2 A,2 A,,2 | D,4 D,4 | C,2 C,2 C,2 D,2 | E,8 | A,,4 z4 | z8 | %67
w: in dem Na- men|Je- su,|in dem Na- men|Je- su,|in dem Na- men|Je-|su.||
 z2!f! E,2 F,2 E,2 | D,2 F,2 =G,2 A,2 | D,4 z2 D,2 | D,2 D,2 D,2 D,2 | D,4 D,4 | %72
w: Es ist in|kei- nem An- dern|Heil, denn|in dem Na- men|Je- su,|
 D,2 D,2 D,E, F,G, |!f! A,2 A,,4 =G,2 | F,2 D,2 ^G,2 E,2 | A,2 F,E, D,2 E,E, | %76
w: in dem Na- * men _|Je- su, ist|auch kein and- rer|Na- me den Men- schen ge-|
 A,2 A,,2 z2!mf! A,2 | (A,4 ^G,4) | A,2 A,2 A,2 B,A, | =G,2 G,2 (G,2 A,)G, |!f! F,2 D,2 A,4- | %81
w: ge- ben, da-|rin- *|nen, da- rin- nen sie|sol- len se- * lig|wer- den, se-|
 A,4 ^G,2 F,E, | F,2 G,A, (B,2 B,,2) | E,4 z2 E,2 | E,2 E,2 E,2 E,2 | E,4 E,4 | %86
w: * * lig, _|se- lig _ wer- *|den, denn|in dem Na- men|Je- su,|
 E,2!<(! E,2 E,2 E,2!<)! |!f! (^D,3 C,) B,,4 | z2 E,2 G,2 E,2 | F,2 G,2 A,2 E,E, | %90
w: in dem Na- men|Je- * su,|ist auch kein|and- rer Na- me den|
 (F,2 E,D,) C,2 A,,2 | E,^D, E,2 z2!mf! E,2 | (E,4 ^D,4) | E,4 z4 | z8 | z2!f! =G,2 G,2 A,G, | %96
w: Men- * * schen ge-|ge- * ben, da-|rin- *|nen,||da- rin- nen sie|
 F,2 F,2 F,2 E,D, | A,4 A,,2 z2 | z4 z2!mf! A,2 | A,2 A,2 A,2 A,2 | A,4 A,,4 | A,2 A,2 A,2 A,2 | %102
w: sol- len se- lig _|wer- den,|denn|in dem Na- men|Je- su,|in dem Na- men,|
 D,4 G,,4 | C,6 D,2 | E,8 | !fermata!A,,8 |] %106
w: in dem|Na- men|Je-|su.|

